X: 1
T: Bunt\`ata's Sgadan
T: Tatties and Herring
T: Mackeral & Tatties
C: Allan MacDonald
R: polka
Z: 2019 John Chambers <jc:trillian.mit.edu>
S: Boston Scottish Fiddle Club Session Tunes p.15
M: C|
L: 1/8
K: A
B  | "A"A2(cA)  cea(e | "D"f2)ae "E7"cBBc |   "A"A2(cA) cea(e | "D"f2)ae "A"cAA :|
(e | "F#m"f2)cf efc(e |    f2)ae "E"cBB(e | "F#m"f2)cf  efc(e | "D"f2)ae "A"cAA ||
(e | "F#m"f2)cf efc(e |    f2)ae "E"cBBc  |   "A"A2(cA) cea(e | "D"f2)ae "A"cAA |]
